X:65
%%titlespace -5
%%musicspace -15
T:Babes in the Wood
M:4/4
L:1/4
K:A
E | "A"A3/c/ e/c/A/c/ | e a g f | e3/c/ e/c/A/c/ | "E"B d c B |
 "A"A3/c/ e/c/A/c/ | e a g f | e3/c/ a c | "E"B2 "A"A :|
|: E | "E"E3/G/ B/G/E/G/ | B d c B | "A"A3/c/ e/c/A/c/ | e a g f |
 e3/c/ a3/f/ | e e/c/ a3/f/ | e3/c/a c | "E"B2 "A"A :|]

